!!!COM:	la Rue, Pierre de
!!!CDT:	~1452///-1518/11/20
!!!OPR:	Missa De virginibus
!!!ONM:	2
!!!OTL:	Gloria
!!!AGN:	Mass; Gloria
!!!SCT:	Rue1015b
!!!SCA:	Rue1015b
!!!voices:	4
!!!voices-OPR:	4
**kern	**kern	**kern	**kern
*staff4	*staff3	*staff2	*staff1
*Ivox	*Ivox	*Ivox	*Ivox
*I"Bassus	*I"Tenor	*I"Contra	*I"Discantus
*I'B	*I'T	*I'C	*I'D
*>[A,B]	*>[A,B]	*>[A,B]	*>[A,B]
*>A	*>A	*>A	*>A
*clefF4	*clefGv2	*clefGv2	*clefG2
*k[]	*k[]	*k[]	*k[]
*M2/1	*M2/1	*M2/1	*M2/1
*met(C)	*met(C)	*met(C)	*met(C)
=1-	=1-	=1-	=1-
!!section: Et in terra pax
!!!OMD: Et in terra pax
1.F	0r	1.f	0r
2F\	.	2d\	.
=2	=2	=2	=2
2G\	0r	2e\	0r
2A\	.	2c\	.
2B-i\	.	2d\	.
4A\	.	4c\	.
4G\	.	4B\	.
=3	=3	=3	=3
0F	1.c	0A	1.cc
.	2c\	.	2a/
=4	=4	=4	=4
0r	2d\	0r	2b\
.	2e\	.	2g/
.	2f\	.	2a/
.	4e\	.	4g/
.	4d\	.	4f/
=5	=5	=5	=5
2r	[0c	2r	2e/
1F	.	1f	1a
2F\	.	[2f\	[2a/
=6	=6	=6	=6
1C	0c]	4f\]	4a/]
.	.	4e\	4g/
.	.	2e\	2g/
1F	.	1a	1f
=7	=7	=7	=7
2C/	2r	2g\	0e
2.C/	1c	1g	.
4D\	.	.	.
4E\	[2c\	4f\	.
4C/	.	4e\	.
=8	=8	=8	=8
1D	4c\]	1f	1r
.	4B\	.	.
.	2B\	.	.
[1C	2.c\	[1e	2r
.	.	.	[2cc\
.	4B\	.	.
=9	=9	=9	=9
1C]	2G/	1e]	2cc\]
.	1c	.	2.cc\
2r	.	2r	.
.	.	.	4b\
2F\	[2c\	2f\	2a/
=10	=10	=10	=10
2F\	2c\]	2f\	2a/
2E\	1c	2g\	2g/
2F\	.	2c\	2a/
2D\	2B\	2d\	2f/
=11	=11	=11	=11
0C	2c\	4g\	1e
.	.	4f\	.
.	4B\	4e\	.
.	4A/	4d\	.
.	1G	1e	2r
.	.	.	2g/
=12	=12	=12	=12
0r	0F	2f\	2a/
.	.	2f\	2.cc\
.	.	2c\	.
.	.	.	4b\
.	.	[2f\	[2a/
=13	=13	=13	=13
0r	1r	4f\]	4a/]
.	.	4e\	4g/
.	.	4d\	4f/
.	.	4c\	4e/
.	2r	2B\	1d
.	2G/	4c\	.
.	.	4B\	.
=14	=14	=14	=14
2F\	2A/	1c	1c
2F\	2.c\	.	.
2E\	.	1r	1r
.	4B\	.	.
[2F\	4A/	.	.
.	4G/	.	.
=15	=15	=15	=15
4F\]	4A/	2r	1r
4G\	4G/	.	.
4A\	1c	2f\	.
4F\	.	.	.
1G	.	2f\	2r
.	2B\	2e\	2g/
=16	=16	=16	=16
0F	0c	2.f\	2a/
.	.	.	2.cc\
.	.	4e\	.
.	.	2c\	.
.	.	.	4b\
.	.	[2f\	[2a/
=17	=17	=17	=17
0r	1r	4f\]	4a/]
.	.	4e\	4g/
.	.	4d\	4f/
.	.	4c\	4e/
.	2r	2B\	1d
.	2G/	4c\	.
.	.	4B\	.
=18	=18	=18	=18
2F\	2A/	2c\	1c
2F\	2.c\	2f\	.
2E\	.	2g\	1r
.	4B\	.	.
[2F\	4A/	[2a\	.
.	4G/	.	.
=19	=19	=19	=19
4F\]	4A/	4a\]	0r
4E\	4B\	4g\	.
4D\	1c	4f\	.
4C/	.	4e\	.
1D	.	1f	.
.	2B\	.	.
=20	=20	=20	=20
1C	[0c	[0e	1g
1C	.	.	2g/
.	.	.	2g/
=21	=21	=21	=21
2C/	0c_	0e]	2g/
1C	.	.	1g
2C/	.	.	4f/
.	.	.	4e/
=22	=22	=22	=22
2F\	0c_	1r	2f/
2E\	.	.	2g/
1C	.	1e	2e/
.	.	.	[2g/
=23	=23	=23	=23
0C	0c]	2e\	2g/]
.	.	2e\	1g
.	.	2e\	.
.	.	[2e\	[2g/
=24	=24	=24	=24
0r	0r	2e\]	2g/]
.	.	4d\	4f/
.	.	4c\	4e/
.	.	2d\	2f/
.	.	2e\	2g/
=25	=25	=25	=25
0r	0r	1f	2.a/
.	.	.	4b\
.	.	2e\	2cc\
.	.	2d\	[2dd\
=26	=26	=26	=26
0r	0r	2f\	4dd\]
.	.	.	4cc\
.	.	2.g\	4b\
.	.	.	4a/
.	.	.	1g
.	.	4f\	.
.	.	4e\	.
.	.	4d\	.
=27	=27	=27	=27
0r	0r	2e\	2r
.	.	4f\	2g/
.	.	4e\	.
.	.	1f	2.a/
.	.	.	4b\
=28	=28	=28	=28
0r	1r	2e\	2cc\
.	.	1d	2.dd\
.	1G	.	.
.	.	.	4cc\
.	.	[2g\	4b\
.	.	.	4a/
=29	=29	=29	=29
0r	2G/	2g\]	2b\
.	2G/	4f\	4g/
.	.	4e\	4a/
.	2G/	2d\	4b\
.	.	.	4cc\
.	[2G/	2B\	2dd\
=30	=30	=30	=30
0r	2G/]	1e	2g/
.	4F/	.	1cc
.	4E/	.	.
.	2F/	1d	.
.	2G/	.	2b\
=31	=31	=31	=31
1C	2E/	0c	0cc
.	1G	.	.
2C/	.	.	.
2C/	2G/	.	.
=32	=32	=32	=32
2C/	2G/	0r	0r
1E	1G	.	.
4D\	4F/	.	.
4C/	4E/	.	.
=33	=33	=33	=33
2D\	2F/	0r	0r
2E\	2G/	.	.
2.F\	2.A/	.	.
4G\	4B\	.	.
=34	=34	=34	=34
2E\	2c\	0r	0r
1D	2.d\	.	.
.	4c\	.	.
[2G\	4B\	.	.
.	4A/	.	.
=35	=35	=35	=35
4G\]	1G	0r	0r
4F\	.	.	.
4E\	.	.	.
4D\	.	.	.
1E	2r	.	.
.	2G/	.	.
=36	=36	=36	=36
1F	2.A/	0r	0r
.	4B\	.	.
2r	2c\	.	.
2F\	[2d\	.	.
=37	=37	=37	=37
2F\	4d\]	0r	0r
.	4c\	.	.
2F\	4B\	.	.
.	4A/	.	.
2.G\	2G/	.	.
.	2d\	.	.
4F\	.	.	.
=38	=38	=38	=38
2D\	2d\	0r	0r
1G	2d\	.	.
.	2.e\	.	.
2C/	.	.	.
.	4d\	.	.
=39	=39	=39	=39
4F\	2d\	0r	0r
4E\	.	.	.
4D\	1c	.	.
4C/	.	.	.
1D	.	.	.
.	2B\	.	.
=40	=40	=40	=40
0C	0c	1g	1cc
.	.	2g\	2cc\
.	.	[2e\	[2cc\
=41	=41	=41	=41
0r	0r	2e\]	2cc\]
.	.	4d\	4b\
.	.	4c\	4a/
.	.	2d\	2b\
.	.	2e\	2g/
=42	=42	=42	=42
1F	1c	0f	0a
2F\	2c\	.	.
2F\	[2c\	.	.
=43	=43	=43	=43
2A\	2c\]	0r	0r
4G\	4B\	.	.
4F\	4A/	.	.
2G\	2B\	.	.
2A\	2c\	.	.
=44	=44	=44	=44
1D	1d	1f	2r
.	.	.	2a/
1r	1r	2g\	2b\
.	.	2f\	2a/
=45	=45	=45	=45
1r	1r	2g\	4b\
.	.	.	4a/
.	.	4f\	4b\
.	.	4e\	4cc\
2.D\	2r	1d	1dd
.	2f\	.	.
4E\	.	.	.
=46	=46	=46	=46
4F\	2f\	0r	0r
4G\	.	.	.
2A\	1f	.	.
2D\	.	.	.
[2d\	4e\	.	.
.	4d\	.	.
=47	=47	=47	=47
4d\]	1e	1r	1r
4c#i\	.	.	.
2c#i\	.	.	.
1d	1d	1f	2r
.	.	.	2a/
=48	=48	=48	=48
0r	0r	2g\	2b\
.	.	2f\	2a/
.	.	2g\	4b\
.	.	.	4a/
.	.	4f\	4b\
.	.	4e\	4cc\
=49	=49	=49	=49
2r	1r	0d	2dd\
2D\	.	.	1ff
2.F\	2r	.	.
.	[2f\	.	4ee\
4G\	.	.	4dd\
=50	=50	=50	=50
0A	2f\]	1r	1cc
.	2e\	.	.
.	2c\	[1a	[1cc
.	[2f\	.	.
=51	=51	=51	=51
0A	2f\]	2a\]	2cc\]
.	4e\	2a\	2cc\
.	4d\	.	.
.	1e	1a	1cc
=52	=52	=52	=52
[0D	2d\	2f\	1r
.	2.f\	2.d\	.
.	.	.	[1dd
.	4e\	4e\	.
.	[2d\	4f\	.
.	.	4g\	.
=53	=53	=53	=53
0D]	4d\]	2a\	2dd\]
.	4c\	.	.
.	2B\	1g	2dd\
.	1A	.	2dd\
.	.	2f#i\	2dd\
=54	=54	=54	=54
1r	0G	2g\	2b\
.	.	2d\	2.g/
[1G	.	2e\	.
.	.	.	4a/
.	.	[2g\	4b\
.	.	.	4cc\
=55	=55	=55	=55
2G\]	1r	4g\]	2dd\
.	.	4f\	.
2G\	.	2e\	1cc
2G\	1g	1d	.
2G\	.	.	2b\
=56	=56	=56	=56
2E\	2g\	0c	0cc
2.C/	2g\	.	.
.	2g\	.	.
4D\	.	.	.
4E\	2g\	.	.
4F\	.	.	.
=57	=57	=57	=57
2G\	2e\	0r	0r
1A	2.c\	.	.
.	4d\	.	.
4G\	4e\	.	.
4F\	4f\	.	.
=58	=58	=58	=58
2E\	2g\	0r	2r
2F\	1f	.	2cc\
1G	.	.	2b\
.	2e\	.	2g/
=59	=59	=59	=59
1F	2f\	2r	2a/
.	4e\	1c	4g/
.	4d\	.	4f/
2r	1c	.	2e/
2A\	.	2A/	2cc\
=60	=60	=60	=60
2G\	1r	2B\	2b\
2E\	.	2c\	2g/
1F	2r	4A/	1a
.	.	4G/	.
.	2f\	4A/	.
.	.	4B\	.
=61	=61	=61	=61
2C/	2e\	1c	1g
2c\	2c\	.	.
2B\	1d	2r	1r
2G\	.	2g\	.
=62	=62	=62	=62
1A	1c	2e\	2r
.	.	2c\	2cc\
1G	1r	4d\	2b\
.	.	4c\	.
.	.	4d\	2g/
.	.	4e\	.
=63	=63	=63	=63
0r	1r	2f\	2a/
.	.	4e\	4g/
.	.	4d\	4f/
.	2r	2c\	2e/
.	2f\	2F/	2a/
=64	=64	=64	=64
1r	2e\	1c	2g/
.	2c\	.	2e/
2r	1d	1r	2f/
2F\	.	.	[2a/
=65	=65	=65	=65
2E\	0c	1r	4a/]
.	.	.	4g/
2C/	.	.	4f/
.	.	.	4e/
1F	.	2r	1f
.	.	2c\	.
=66	=66	=66	=66
[0Cl	[0cl	4c\	0e
.	.	4B\	.
.	.	4A/	.
.	.	4G/	.
.	.	1A	.
=67	=67	=67	=67
0C]	0c]	0Gl	0el
!!LO:LB:i:g=z
=68||	=68||	=68||	=68||
*>B	*>B	*>B	*>B
*clefF4	*clefGv2	*clefGv2	*clefG2
*k[]	*k[]	*k[]	*k[]
*M2/1	*M2/1	*M2/1	*M2/1
*met(C2)	*met(C2)	*met(C2)	*met(C2)
!!section: Qui tollis
!!!OMD: Qui tollis
0r	[0c	0r	1r
.	.	.	1g
=69.	=69.	=69.	=69.
1r	0c]	0r	2.cc\
.	.	.	4dd\
1C	.	.	1ee
=70	=70	=70	=70
2.F\	0c	1r	1a
4G\	.	.	.
1A	.	1c	2r
.	.	.	2ee\
=71.	=71.	=71.	=71.
0D	0d	2.f\	2ff\
.	.	.	2.dd\
.	.	4g\	.
.	.	1a	.
.	.	.	4cc\
.	.	.	2a/
=72	=72	=72	=72
0r	1r	1d	2.b\
.	.	.	4cc\
.	1G	2r	1dd
.	.	2d\	.
=73.	=73.	=73.	=73.
0r	2.c\	2.e\	1g
.	4d\	4f\	.
.	2e\	2g\	2r
.	2e\	2g\	2g/
=74	=74	=74	=74
1r	[0A	0c	2.cc\
.	.	.	4dd\
2r	.	.	2ee\
2C/	.	.	2ee\
=75.	=75.	=75.	=75.
2.F\	0A]	2r	1a
.	.	2c\	.
4G\	.	.	.
1A	.	2.f\	2r
.	.	.	[2a/
.	.	4g\	.
=76	=76	=76	=76
0D	1r	2a\	2a/]
.	.	4d\	2dd\
.	.	4e\	.
.	2r	4f\	2a/
.	.	4g\	.
.	2A/	[2a\	[2dd\
=77.	=77.	=77.	=77.
1r	2.B\	2a\]	4dd\]
.	.	.	4cc\
.	.	1g	2b\
.	4c\	.	.
1D	2d\	.	1a
.	2d\	2f#i\	.
=78	=78	=78	=78
2.E\	1G	1g	0g
4F\	.	.	.
1G	2r	2r	.
.	2G/	2d\	.
=79.	=79.	=79.	=79.
1C	2.c\	2e\	1r
.	.	2.g\	.
.	4d\	.	.
2r	2e\	.	1g
.	.	4f\	.
2C/	2e\	4e\	.
.	.	4d\	.
=80	=80	=80	=80
2.F\	2.A/	2c\	0a
.	.	2f\	.
4G\	4B\	.	.
2A\	2c\	2e\	.
2D\	[2d\	[2f\	.
=81.	=81.	=81.	=81.
1A	2d\]	2f\]	1a
.	2c\	2e\	.
2D\	1d	4f\	[1a
.	.	4g\	.
[2F\	.	4a\	.
.	.	4b-i\	.
=82	=82	=82	=82
2F\]	1r	2a\	2a/]
2G\	.	1g	2b\
1A	2r	.	1cc
.	2A/	2f\	.
=83.	=83.	=83.	=83.
1G	2.B\	2g\	2b\
.	.	2b\	1g
.	4c\	.	.
2r	2d\	1a	.
2D\	2d\	.	2f/
=84	=84	=84	=84
2.E\	2.G/	2.g\	2g/
.	.	.	2b\
4F\	4A/	4f\	.
2G\	4B\	2e\	4b\
.	4c\	.	4a/
2D\	4B\	2f\	[2dd\
.	4A/	.	.
=85.	=85.	=85.	=85.
2.E\	2c\	0g	2dd\]
.	2e\	.	1cc
4F\	.	.	.
1G	1d	.	.
.	.	.	2b\
=86	=86	=86	=86
1C	[0c	0r	1cc
1F	.	.	2r
.	.	.	2f/
=87.	=87.	=87.	=87.
2E\	0c]	0r	2g/
1F	.	.	1a
4E\	.	.	4g/
4D\	.	.	4f/
=88	=88	=88	=88
0C	0r	1r	1e
.	.	1c	2r
.	.	.	2cc\
=89.	=89.	=89.	=89.
0r	1r	2B\	2dd\
.	.	1c	1ee
.	1c	.	.
.	.	4B\	4dd\
.	.	4A/	4cc\
=90	=90	=90	=90
0r	2d\	1G	1b
.	1e	.	.
.	.	1A	1cc
.	4d\	.	.
.	4c\	.	.
=91.	=91.	=91.	=91.
1r	1B	1G	1dd
1c	2r	1r	1g
.	2c\	.	.
=92	=92	=92	=92
2B\	2d\	0r	1r
1c	1e	.	.
.	.	.	2r
4B\	4d\	.	2cc\
4A\	4c\	.	.
=93.	=93.	=93.	=93.
1G	1B	2r	2dd\
.	.	1g	1ee
1A	1c	.	.
.	.	2f\	4dd\
.	.	.	4cc\
=94	=94	=94	=94
2G\	2.d\	2g\	2b\
2B\	.	2d\	2g/
.	4B\	.	.
1A	4c\	2e\	2.cc\
.	4d\	.	.
.	[2e\	4c\	.
.	.	4B\	4dd\
=95.	=95.	=95.	=95.
2G\	4e\]	4A/	1ee
.	4d\	4G/	.
2E\	1c	1G	.
1D	.	.	1ff
.	2B\	2F/	.
=96	=96	=96	=96
0C	[0c	2G/	1ee
.	.	2g\	.
.	.	2g\	2r
.	.	[2g\	[2ee\
=97.	=97.	=97.	=97.
1.C	0c]	4g\]	2ee\]
.	.	4f\	.
.	.	4e\	2ee\
.	.	4d\	.
.	.	2.e\	4ee\
.	.	.	4dd\
2C/	.	.	4cc\
.	.	4d\	4b\
=98	=98	=98	=98
2F\	2r	[0f	2a/
2F\	2F/	.	1ff
2D\	2F/	.	.
2D\	2F/	.	2ff\
=99.	=99.	=99.	=99.
1F	2.A/	0f]	2.ff\
.	4B\	.	4ee\
1F	4c\	.	2dd\
.	4B\	.	.
.	4c\	.	[2cc\
.	4d\	.	.
=100	=100	=100	=100
1C	2e\	0r	2cc\]
.	1f	.	4b\
.	.	.	4a/
1C	.	.	1g
.	2e\	.	.
=101.	=101.	=101.	=101.
[0F	0f	1c	2r
.	.	.	2f/
.	.	2c\	2f/
.	.	2c\	2f/
=102	=102	=102	=102
0F]	0r	2f\	2.a/
.	.	1f	.
.	.	.	4b\
.	.	.	4cc\
.	.	.	4b\
.	.	4e\	4cc\
.	.	4d\	4dd\
=103.	=103.	=103.	=103.
1r	2r	2c\	2ee\
.	2f\	2d\	1ff
2r	1g	1c	.
2c\	.	.	2ee\
=104	=104	=104	=104
2.d\	2f\	0r	1ff
.	2d\	.	.
4B\	.	.	.
2c\	1e	.	2r
2A\	.	.	2cc\
=105.	=105.	=105.	=105.
1B	1d	0r	2.dd\
.	.	.	4b\
1A	2r	.	2cc\
.	2f\	.	2a/
=106	=106	=106	=106
2r	2.g\	2r	1b
2G\	.	2d\	.
.	4e\	.	.
2D\	2f\	2d\	1a
2F\	2d\	2A/	.
=107.	=107.	=107.	=107.
2G\	1e	2B\	2r
2A\	.	2c\	2cc\
1D	1d	1A	2.dd\
.	.	.	4b\
=108	=108	=108	=108
1r	2r	1r	2cc\
.	2f\	.	2a/
2r	2.g\	2r	1b
2G\	.	2d\	.
.	4e\	.	.
=109.	=109.	=109.	=109.
2D\	2f\	2d\	1a
2F\	2d\	2A/	.
2G\	1e	2B\	2r
2A\	.	2c\	2cc\
=110	=110	=110	=110
1D	1d	2A/	4dd\
.	.	.	4cc\
.	.	1d	4b\
.	.	.	4a/
1r	2r	.	2b\
.	2c\	2e\	2cc\
=111.	=111.	=111.	=111.
1r	4d\	4f\	4b\
.	4c\	4e\	4a/
.	4B\	4d\	1a
.	4A/	4c\	.
2r	1B	2d\	.
2E\	.	2e\	2g#i/
=112	=112	=112	=112
4F\	0A	2c\	0a
4E\	.	.	.
4D\	.	4f\	.
4C/	.	4e\	.
4D\	.	4f\	.
4C/	.	4e\	.
[2F\	.	4d\	.
.	.	4c\	.
=113.	=113.	=113.	=113.
4F\]	0r	4d\	0r
4E\	.	4c\	.
2A\	.	1f	.
2.G\	.	.	.
.	.	[2e\	.
4F\	.	.	.
=114	=114	=114	=114
2D\	0r	4e\]	0r
.	.	4d\	.
2F\	.	1d	.
1E	.	.	.
.	.	2c#i\	.
=115.	=115.	=115.	=115.
0D	1.f	[0d	2r
.	.	.	1a
.	2f\	.	2a/
=116	=116	=116	=116
2r	1f	0d]	2a/
1D	.	.	2.d/
.	1f	.	.
.	.	.	4e/
2D\	.	.	4f/
.	.	.	4g/
=117.	=117.	=117.	=117.
2D\	1f	2r	2a/
2D\	.	2d\	2b\
2D\	1f	2d\	2a/
2D\	.	2d\	2b\
=118	=118	=118	=118
2.E\	0e	2B\	[0g
.	.	4c\	.
4C/	.	4B\	.
[1C	.	2c\	.
.	.	[2c\	.
=119.	=119.	=119.	=119.
1C]	0e	2c\]	0g]
.	.	4B\	.
.	.	4A/	.
2r	.	2.G/	.
2C/	.	.	.
.	.	4A/	.
=120	=120	=120	=120
4C/	1r	2B\	0r
4D\	.	.	.
4E\	.	2c\	.
4F\	.	.	.
2G\	1e	2B\	.
2A\	.	2c\	.
=121.	=121.	=121.	=121.
0D	1.f	1d	2r
.	.	.	2.d/
.	.	1A	.
.	.	.	4e/
.	2f\	.	4f/
.	.	.	4g/
=122	=122	=122	=122
1D	1f	2r	2a/
.	.	2d\	2b\
2D\	1f	2d\	2a/
2D\	.	2d\	2b\
=123.	=123.	=123.	=123.
2.E\	[0e	2B\	2g/
.	.	2G/	1cc
4C/	.	.	.
1C	.	2.c\	.
.	.	.	[2cc\
.	.	4d\	.
=124	=124	=124	=124
2r	0e]	4e\	2cc\]
.	.	4f\	.
2.C/	.	1g	4b\
.	.	.	4a/
.	.	.	2.g/
4D\	.	.	.
4E\	.	4f\	.
4F\	.	4e\	4a/
=125.	=125.	=125.	=125.
2G\	1r	2d\	2b\
2A\	.	2c\	2cc\
2G\	1e	2g\	2b\
2A\	.	2c\	2cc\
=126	=126	=126	=126
[0D	1.f	2r	1a
.	.	2d\	.
.	.	2d\	2r
.	2f\	2d\	2dd\
=127.	=127.	=127.	=127.
0D]	1f	2.f\	2dd\
.	.	.	2dd\
.	.	4e\	.
.	1f	2d\	2.ff\
.	.	2c\	.
.	.	.	4ee\
=128	=128	=128	=128
1r	1f	2B\	2dd\
.	.	2A/	2cc\
2r	1d	1f	2b\
2D\	.	.	4a/
.	.	.	4g/
=129.	=129.	=129.	=129.
2D\	2r	1f	1a
2D\	2d\	.	.
2.G\	2d\	1g	1g
.	2d\	.	.
4F\	.	.	.
=130	=130	=130	=130
2E\	2.g\	0r	0r
2D\	.	.	.
.	4f\	.	.
2C/	2e\	.	.
2BB/	[2d\	.	.
=131.	=131.	=131.	=131.
1C	4d\]	1r	0r
.	4c\	.	.
.	1c	.	.
1D	.	2r	.
.	2B\	2d\	.
=132	=132	=132	=132
[0C	1c	2e\	2r
.	.	2c\	2g/
.	2r	2.e\	2g/
.	2G/	.	2g/
.	.	4f\	.
=133.	=133.	=133.	=133.
0C_	2G/	2.g\	2.cc\
.	2G/	.	.
.	.	4f\	4b\
.	2.c\	2e\	2a/
.	.	2d\	[2g/
.	4B\	.	.
=134	=134	=134	=134
0C]	2A/	0c	2g/]
.	4G/	.	2.f/
.	4F/	.	.
.	1G	.	.
.	.	.	4e/
.	.	.	2e/
=135.	=135.	=135.	=135.
1r	0F	2r	0f
.	.	2c\	.
2r	.	2d\	.
[2D\	.	[2f\	.
=136	=136	=136	=136
4D\]	0r	2f\]	0r
4E\	.	.	.
2F\	.	4e\	.
.	.	4d\	.
2G\	.	2e\	.
2A\	.	2f\	.
=137.	=137.	=137.	=137.
1B-i	1r	2d\	2r
.	.	2.g\	2g/
[1A	2r	.	2a/
.	.	4f\	.
.	2A/	4e\	[2cc\
.	.	4d\	.
=138	=138	=138	=138
2A\]	2c\	2e\	2cc\]
2F\	2d\	1d	4b\
.	.	.	4a/
2G\	1e	.	2b\
2A\	.	2c\	2cc\
=139.	=139.	=139.	=139.
0D	2f\	0d	2a/
.	2.f\	.	2.dd\
.	4e\	.	4cc\
.	4d\	.	4b\
.	4c\	.	4a/
=140	=140	=140	=140
0r	4d\	0r	2b\
.	4c\	.	.
.	4B\	.	1a
.	4A/	.	.
.	1B	.	.
.	.	.	2g#i/
=141.	=141.	=141.	=141.
1r	0A	2r	0a
.	.	2c\	.
2r	.	2d\	.
[2D\	.	[2f\	.
=142	=142	=142	=142
4D\]	0r	2f\]	0r
4E\	.	.	.
2F\	.	4e\	.
.	.	4d\	.
2G\	.	2e\	.
2A\	.	2f\	.
=143.	=143.	=143.	=143.
1B-i	1r	2d\	2r
.	.	2.g\	2g/
[1A	2r	.	2a/
.	.	4f\	.
.	2A/	4e\	[2cc\
.	.	4d\	.
=144	=144	=144	=144
2A\]	2c\	2e\	2cc\]
2F\	2d\	1d	4b\
.	.	.	4a/
2G\	1e	.	2b\
2A\	.	2c\	2cc\
=145.	=145.	=145.	=145.
2D\	2f\	2d\	2a/
2D\	2.f\	2a\	2.dd\
2D\	.	2a\	.
.	4e\	.	4cc\
2G\	4d\	[2g\	4b-i\
.	4c\	.	4a/
=146	=146	=146	=146
4B-i\	2d\	2g\]	2g/
4A\	.	.	.
4G\	1c	1f	2a/
4F\	.	.	.
1G	.	.	1b-i
.	2B-i\	2e\	.
=147.	=147.	=147.	=147.
1F	1c	1f	2a/
.	.	.	2.cc\
1C	1r	2r	.
.	.	.	4b\
.	.	2e\	2g/
=148	=148	=148	=148
2r	2r	2f\	2.a/
2.C/	2.c\	2e\	.
.	.	.	4g/
.	.	2g\	1e
4D\	4B\	.	.
2E\	2G/	2g\	.
=149.	=149.	=149.	=149.
2F\	2.A/	1c	2r
2.C/	.	.	2.cc\
.	4G/	.	.
.	1E	2G/	.
4D\	.	.	4b\
2E\	.	[2c\	2g/
=150	=150	=150	=150
2F\	2r	4c\]	2.a/
.	.	4d\	.
2.C/	2.c\	4e\	.
.	.	4f\	4g/
.	.	2g\	4e/
4D\	4B\	.	4d/
4E\	2G/	2e\	[2g/
4C/	.	.	.
=151.	=151.	=151.	=151.
2F\	2.A/	2d\	2g/]
2D\	.	2B\	2.f/
.	4F/	.	.
1C	1G	1c	.
.	.	.	4e/
.	.	.	2e/
=152	=152	=152	=152
1r	0F	2c\	[0fl
.	.	1d	.
1F	.	.	.
.	.	4c\	.
.	.	4B\	.
=153.	=153.	=153.	=153.
[0Fl	[0Fl	1.A	0f_
.	.	2B\	.
=154	=154	=154	=154
0F]	0F]	0cl	0f]
==	==	==	==
*-	*-	*-	*-
!!!RDF**kern: l=long note in original notation
!!!RDF**kern: i=editorial accidental
!!!ENC:	Chris Gage 06-24-2013
!!!END:	2013/08/05/
!!!EED:	Jesse Rodin
!!!EEV:	2013/08/06/
!!!ONB:	Translated from MusicXML and edited on 2013/08/06/ by Craig Sapp
!!muse2ps: T^@{OPR}^u^@{ONM}{. }@{OTL}^C^@{COM}^i2I150v85,85,85,150Q16
